icons/maia/apps/scalable/geany.svg

<svg xmlns="http://www.w3.org/2000/svg" viewBox="0 0 48 48">
 <defs>
  <linearGradient id="linearGradient3764" x1="1" x2="47" gradientUnits="userSpaceOnUse" gradientTransform="matrix(0,-1,1,0,-1.5e-6,47.999998)">
   <stop style="stop-color:#f6d22a;stop-opacity:1"/>
   <stop offset="1" style="stop-color:#f7d63d;stop-opacity:1"/>
  </linearGradient>
 </defs>
 <g>
  <path d="m 36.31 5 c 5.859 4.062 9.688 10.831 9.688 18.5 c 0 12.426 -10.07 22.5 -22.5 22.5 c -7.669 0 -14.438 -3.828 -18.5 -9.688 c 1.037 1.822 2.306 3.499 3.781 4.969 c 4.085 3.712 9.514 5.969 15.469 5.969 c 12.703 0 23 -10.298 23 -23 c 0 -5.954 -2.256 -11.384 -5.969 -15.469 c -1.469 -1.475 -3.147 -2.744 -4.969 -3.781 z m 4.969 3.781 c 3.854 4.113 6.219 9.637 6.219 15.719 c 0 12.703 -10.297 23 -23 23 c -6.081 0 -11.606 -2.364 -15.719 -6.219 c 4.16 4.144 9.883 6.719 16.219 6.719 c 12.703 0 23 -10.298 23 -23 c 0 -6.335 -2.575 -12.06 -6.719 -16.219 z" style="opacity:0.05"/>
  <path d="m 41.28 8.781 c 3.712 4.085 5.969 9.514 5.969 15.469 c 0 12.703 -10.297 23 -23 23 c -5.954 0 -11.384 -2.256 -15.469 -5.969 c 4.113 3.854 9.637 6.219 15.719 6.219 c 12.703 0 23 -10.298 23 -23 c 0 -6.081 -2.364 -11.606 -6.219 -15.719 z" style="opacity:0.1"/>
  <path d="m 31.25 2.375 c 8.615 3.154 14.75 11.417 14.75 21.13 c 0 12.426 -10.07 22.5 -22.5 22.5 c -9.708 0 -17.971 -6.135 -21.12 -14.75 a 23 23 0 0 0 44.875 -7 a 23 23 0 0 0 -16 -21.875 z" style="opacity:0.2"/>
 </g>
 <g>
  <path d="m 24 1 c 12.703 0 23 10.297 23 23 c 0 12.703 -10.297 23 -23 23 -12.703 0 -23 -10.297 -23 -23 0 -12.703 10.297 -23 23 -23 z" style="fill:url(#linearGradient3764);fill-opacity:1"/>
 </g>
 <g>
  <path d="m 40.03 7.531 c 3.712 4.084 5.969 9.514 5.969 15.469 0 12.703 -10.297 23 -23 23 c -5.954 0 -11.384 -2.256 -15.469 -5.969 4.178 4.291 10.01 6.969 16.469 6.969 c 12.703 0 23 -10.298 23 -23 0 -6.462 -2.677 -12.291 -6.969 -16.469 z" style="opacity:0.1"/>
 </g>
 <g transform="matrix(3.543307,0,0,3.543307,5.7909046e-8,0.00118191)">
  <path d="m 5.634 9.313 c 0.064 -0.262 0.271 -0.452 0.451 -0.605 0.118 -0.076 0.124 -0.139 0.029 -0.183 -0.48 -0.221 -0.875 -0.358 -1.272 -0.575 -0.672 -0.373 -1.057 -0.914 -1.159 -1.628 -0.021 -0.171 -0.021 -0.349 0.009 -0.474 0.041 -0.089 0.127 -0.142 0.229 -0.142 c 0.065 0 0.103 0.015 0.285 0.116 0.415 0.229 0.821 0.411 1.033 0.464 0.087 0.021 0.096 0.021 0.145 -0.006 c 0.234 -0.129 0.415 -0.325 0.496 -0.354 l 1.86 0 c 0.647 0.692 1.558 0.882 2.345 0.461 0.209 -0.123 0.334 -0.249 0.402 -0.461 l 0.52 0 c 0 0.039 -0.108 0.326 -0.185 0.429 -0.248 0.332 -0.634 0.6 -1.22 0.846 c -0.841 0.418 -1.407 0.99 -2.133 1.324 -0.141 0.071 -0.024 0.112 0.037 0.182 0.196 0.177 0.337 0.365 0.402 0.605 m -2.713 -1.86 -0.128 -0.637 c -0.011 -0.007 -0.065 -0.028 -0.121 -0.046 -0.111 -0.036 -0.402 -0.157 -0.529 -0.221 -0.094 -0.047 -0.145 -0.052 -0.145 -0.014 c 0 0.05 0.117 0.282 0.203 0.404 0.095 0.134 0.2 0.241 0.344 0.352 0.133 0.101 0.308 0.205 0.348 0.205 0.03 0 0.033 -0.006 0.027 -0.042 z m 0.78 -1.808 c 0.006 -0.011 0.069 -0.131 0.14 -0.246 0.296 -0.475 0.433 -0.601 0.655 -0.601 c 0.212 0 0.362 0.134 0.643 0.579 0.088 0.138 0.159 0.263 0.159 0.268 z" style="fill:#000;opacity:0.1;fill-opacity:1"/>
  <path d="m 5.352 9.03 c 0.064 -0.262 0.271 -0.452 0.451 -0.605 0.118 -0.076 0.124 -0.139 0.029 -0.183 -0.48 -0.221 -0.875 -0.358 -1.272 -0.575 -0.672 -0.373 -1.057 -0.914 -1.159 -1.628 -0.021 -0.171 -0.021 -0.349 0.009 -0.474 0.041 -0.089 0.127 -0.142 0.229 -0.142 c 0.065 0 0.103 0.015 0.285 0.116 0.415 0.229 0.821 0.411 1.033 0.464 0.087 0.021 0.096 0.021 0.145 -0.006 c 0.234 -0.129 0.415 -0.325 0.496 -0.354 l 1.86 0 c 0.649 0.693 1.558 0.882 2.345 0.461 0.209 -0.123 0.334 -0.249 0.402 -0.461 l 0.52 0 c 0 0.039 -0.108 0.326 -0.185 0.429 c -0.248 0.332 -0.634 0.6 -1.22 0.846 -0.841 0.418 -1.407 0.99 -2.133 1.324 -0.141 0.071 -0.024 0.112 0.037 0.182 0.196 0.177 0.337 0.365 0.402 0.605 m -2.713 -1.86 -0.128 -0.637 c -0.011 -0.007 -0.065 -0.028 -0.121 -0.046 -0.111 -0.036 -0.402 -0.157 -0.529 -0.221 -0.094 -0.047 -0.145 -0.052 -0.145 -0.014 c 0 0.05 0.117 0.282 0.203 0.404 0.095 0.134 0.2 0.241 0.344 0.352 0.133 0.101 0.308 0.205 0.348 0.205 0.03 0 0.033 -0.006 0.027 -0.042 z m 0.78 -1.808 c 0.006 -0.011 0.069 -0.131 0.14 -0.246 0.296 -0.475 0.433 -0.601 0.655 -0.601 c 0.212 0 0.362 0.134 0.643 0.579 0.088 0.138 0.159 0.263 0.159 0.268 z" style="fill:#d11616;fill-opacity:1"/>
 </g>
</svg>

<?xml version="1.0" encoding="UTF-8" standalone="no"?>
<svg
   xmlns:dc="http://purl.org/dc/elements/1.1/"
   xmlns:cc="http://creativecommons.org/ns#"
   xmlns:rdf="http://www.w3.org/1999/02/22-rdf-syntax-ns#"
   xmlns:svg="http://www.w3.org/2000/svg"
   xmlns="http://www.w3.org/2000/svg"
   xmlns:sodipodi="http://sodipodi.sourceforge.net/DTD/sodipodi-0.dtd"
   xmlns:inkscape="http://www.inkscape.org/namespaces/inkscape"
   viewBox="0 0 48 48"
   version="1.1"
   id="svg31"
   sodipodi:docname="geany.svg"
   inkscape:version="0.92.3 (2405546, 2018-03-11)">
  <metadata
     id="metadata35">
    <rdf:RDF>
      <cc:Work
         rdf:about="">
        <dc:format>image/svg+xml</dc:format>
        <dc:type
           rdf:resource="http://purl.org/dc/dcmitype/StillImage" />
      </cc:Work>
    </rdf:RDF>
  </metadata>
  <sodipodi:namedview
     pagecolor="#ffffff"
     bordercolor="#666666"
     borderopacity="1"
     objecttolerance="10"
     gridtolerance="10"
     guidetolerance="10"
     inkscape:pageopacity="0"
     inkscape:pageshadow="2"
     inkscape:window-width="1920"
     inkscape:window-height="994"
     id="namedview33"
     showgrid="false"
     inkscape:zoom="4.9166667"
     inkscape:cx="1.6271186"
     inkscape:cy="24"
     inkscape:window-x="0"
     inkscape:window-y="27"
     inkscape:window-maximized="1"
     inkscape:current-layer="svg31" />
  <defs
     id="defs7">
    <linearGradient
       id="linearGradient3764"
       x1="1"
       x2="47"
       gradientUnits="userSpaceOnUse"
       gradientTransform="matrix(0,-1,1,0,-1.5e-6,47.999998)">
      <stop
         style="stop-color:#f6d22a;stop-opacity:1"
         id="stop2" />
      <stop
         offset="1"
         style="stop-color:#f7d63d;stop-opacity:1"
         id="stop4" />
    </linearGradient>
  </defs>
  <g
     id="g15">
    <path
       d="m 36.31 5 c 5.859 4.062 9.688 10.831 9.688 18.5 c 0 12.426 -10.07 22.5 -22.5 22.5 c -7.669 0 -14.438 -3.828 -18.5 -9.688 c 1.037 1.822 2.306 3.499 3.781 4.969 c 4.085 3.712 9.514 5.969 15.469 5.969 c 12.703 0 23 -10.298 23 -23 c 0 -5.954 -2.256 -11.384 -5.969 -15.469 c -1.469 -1.475 -3.147 -2.744 -4.969 -3.781 z m 4.969 3.781 c 3.854 4.113 6.219 9.637 6.219 15.719 c 0 12.703 -10.297 23 -23 23 c -6.081 0 -11.606 -2.364 -15.719 -6.219 c 4.16 4.144 9.883 6.719 16.219 6.719 c 12.703 0 23 -10.298 23 -23 c 0 -6.335 -2.575 -12.06 -6.719 -16.219 z"
       style="opacity:0.05"
       id="path9" />
    <path
       d="m 41.28 8.781 c 3.712 4.085 5.969 9.514 5.969 15.469 c 0 12.703 -10.297 23 -23 23 c -5.954 0 -11.384 -2.256 -15.469 -5.969 c 4.113 3.854 9.637 6.219 15.719 6.219 c 12.703 0 23 -10.298 23 -23 c 0 -6.081 -2.364 -11.606 -6.219 -15.719 z"
       style="opacity:0.1"
       id="path11" />
    <path
       d="m 31.25 2.375 c 8.615 3.154 14.75 11.417 14.75 21.13 c 0 12.426 -10.07 22.5 -22.5 22.5 c -9.708 0 -17.971 -6.135 -21.12 -14.75 a 23 23 0 0 0 44.875 -7 a 23 23 0 0 0 -16 -21.875 z"
       style="opacity:0.2"
       id="path13" />
  </g>
  <g
     id="g19"
     style="fill:#4d4d4d">
    <path
       d="m 24 1 c 12.703 0 23 10.297 23 23 c 0 12.703 -10.297 23 -23 23 -12.703 0 -23 -10.297 -23 -23 0 -12.703 10.297 -23 23 -23 z"
       style="fill:#4d4d4d;fill-opacity:1"
       id="path17" />
  </g>
  <g
     id="g23">
    <path
       d="m 40.03 7.531 c 3.712 4.084 5.969 9.514 5.969 15.469 0 12.703 -10.297 23 -23 23 c -5.954 0 -11.384 -2.256 -15.469 -5.969 4.178 4.291 10.01 6.969 16.469 6.969 c 12.703 0 23 -10.298 23 -23 0 -6.462 -2.677 -12.291 -6.969 -16.469 z"
       style="opacity:0.1"
       id="path21" />
  </g>
  <g
     transform="matrix(5.1713279,0,0,4.5604681,-12.02132,-6.2174017)"
     id="g29"
     style="fill:#00ccff">
    <path
       d="M 5.634,9.313 C 5.698,9.051 5.905,8.861 6.085,8.708 6.203,8.632 6.209,8.569 6.114,8.525 5.634,8.304 5.239,8.167 4.842,7.95 4.17,7.577 3.785,7.036 3.683,6.322 3.662,6.151 3.662,5.973 3.692,5.848 3.733,5.759 3.819,5.706 3.921,5.706 3.986,5.706 4.024,5.721 4.206,5.822 4.621,6.051 5.027,6.233 5.239,6.286 5.326,6.307 5.335,6.307 5.384,6.28 5.618,6.151 5.799,5.955 5.88,5.926 h 1.86 c 0.647,0.692 1.558,0.882 2.345,0.461 0.209,-0.123 0.334,-0.249 0.402,-0.461 h 0.52 c 0,0.039 -0.108,0.326 -0.185,0.429 -0.248,0.332 -0.634,0.6 -1.22,0.846 C 8.761,7.619 8.195,8.191 7.469,8.525 7.328,8.596 7.445,8.637 7.506,8.707 7.702,8.884 7.843,9.072 7.908,9.312 M 5.195,7.452 5.067,6.815 C 5.056,6.808 5.002,6.787 4.946,6.769 4.835,6.733 4.544,6.612 4.417,6.548 4.323,6.501 4.272,6.496 4.272,6.534 c 0,0.05 0.117,0.282 0.203,0.404 0.095,0.134 0.2,0.241 0.344,0.352 0.133,0.101 0.308,0.205 0.348,0.205 0.03,0 0.033,-0.006 0.027,-0.042 z M 5.975,5.644 C 5.981,5.633 6.044,5.513 6.115,5.398 6.411,4.923 6.548,4.797 6.77,4.797 c 0.212,0 0.362,0.134 0.643,0.579 0.088,0.138 0.159,0.263 0.159,0.268 z"
       style="opacity:0.1;fill:#00ccff;fill-opacity:1"
       id="path25"
       inkscape:connector-curvature="0" />
    <path
       d="M 5.352,9.03 C 5.416,8.768 5.623,8.578 5.803,8.425 5.921,8.349 5.927,8.286 5.832,8.242 5.352,8.021 4.957,7.884 4.56,7.667 3.888,7.294 3.503,6.753 3.401,6.039 3.38,5.868 3.38,5.69 3.41,5.565 3.451,5.476 3.537,5.423 3.639,5.423 3.704,5.423 3.742,5.438 3.924,5.539 4.339,5.768 4.745,5.95 4.957,6.003 5.044,6.024 5.053,6.024 5.102,5.997 5.336,5.868 5.517,5.672 5.598,5.643 h 1.86 c 0.649,0.693 1.558,0.882 2.345,0.461 0.209,-0.123 0.334,-0.249 0.402,-0.461 h 0.52 c 0,0.039 -0.108,0.326 -0.185,0.429 C 10.292,6.404 9.906,6.672 9.32,6.918 8.479,7.336 7.913,7.908 7.187,8.242 7.046,8.313 7.163,8.354 7.224,8.424 7.42,8.601 7.561,8.789 7.626,9.029 M 4.913,7.169 4.785,6.532 C 4.774,6.525 4.72,6.504 4.664,6.486 4.553,6.45 4.262,6.329 4.135,6.265 4.041,6.218 3.99,6.213 3.99,6.251 c 0,0.05 0.117,0.282 0.203,0.404 0.095,0.134 0.2,0.241 0.344,0.352 0.133,0.101 0.308,0.205 0.348,0.205 0.03,0 0.033,-0.006 0.027,-0.042 z M 5.693,5.361 C 5.699,5.35 5.762,5.23 5.833,5.115 6.129,4.64 6.266,4.514 6.488,4.514 6.7,4.514 6.85,4.648 7.131,5.093 7.219,5.231 7.29,5.356 7.29,5.361 Z"
       style="fill:#00ccff;fill-opacity:1"
       id="path27"
       inkscape:connector-curvature="0" />
  </g>
</svg>
